packages/core/assets/Icons/arrow_circle_chevron_right_filled.svg

<svg viewBox="0 0 20 20" fill="none" xmlns="http://www.w3.org/2000/svg">
<path d="M10.5625 9.99996L8.58335 8.02079C8.43058 7.86801 8.35419 7.67704 8.35419 7.44788C8.35419 7.21871 8.43058 7.02079 8.58335 6.85413C8.75002 6.68746 8.94794 6.60413 9.1771 6.60413C9.40627 6.60413 9.60419 6.68746 9.77085 6.85413L12.3334 9.41663C12.5 9.58329 12.5834 9.77774 12.5834 9.99996C12.5834 10.2222 12.5 10.4166 12.3334 10.5833L9.75002 13.1666C9.58335 13.3333 9.38891 13.4132 9.16669 13.4062C8.94446 13.3993 8.75002 13.3125 8.58335 13.1458C8.43058 12.9791 8.35071 12.7847 8.34377 12.5625C8.33683 12.3402 8.41669 12.1458 8.58335 11.9791L10.5625 9.99996ZM18.3334 9.99996C18.3334 8.84718 18.1146 7.76385 17.6771 6.74996C17.2396 5.73607 16.6459 4.85413 15.8959 4.10413C15.1459 3.35413 14.2639 2.76038 13.25 2.32288C12.2361 1.88538 11.1528 1.66663 10 1.66663C8.84724 1.66663 7.76391 1.88538 6.75002 2.32288C5.73613 2.76038 4.85419 3.35413 4.10419 4.10413C3.35419 4.85413 2.76044 5.73607 2.32294 6.74996C1.88544 7.76385 1.66669 8.84718 1.66669 9.99996C1.66669 11.1527 1.88544 12.2361 2.32294 13.25C2.76044 14.2638 3.35419 15.1458 4.10419 15.8958C4.85419 16.6458 5.73613 17.2395 6.75002 17.677C7.76391 18.1145 8.84724 18.3333 10 18.3333C11.1528 18.3333 12.2361 18.1145 13.25 17.677C14.2639 17.2395 15.1459 16.6458 15.8959 15.8958C16.6459 15.1458 17.2396 14.2638 17.6771 13.25C18.1146 12.2361 18.3334 11.1527 18.3334 9.99996Z" fill="currentColor"/>
</svg>

<svg xmlns="http://www.w3.org/2000/svg" width="20" height="20" fill="none" viewBox="0 0 20 20">
  <path fill="#201F1F" d="m10.563 10-1.98-1.98a.777.777 0 0 1-.229-.572.85.85 0 0 1 .23-.594.811.811 0 0 1 .593-.25.81.81 0 0 1 .594.25l2.562 2.563a.8.8 0 0 1 .25.583.8.8 0 0 1-.25.583L9.75 13.167a.763.763 0 0 1-.583.24.838.838 0 0 1-.584-.261.879.879 0 0 1-.24-.584.764.764 0 0 1 .24-.583L10.563 10Zm7.77 0a8.115 8.115 0 0 0-.656-3.25 8.415 8.415 0 0 0-1.781-2.646 8.416 8.416 0 0 0-2.646-1.781A8.115 8.115 0 0 0 10 1.667a8.115 8.115 0 0 0-3.25.656 8.415 8.415 0 0 0-2.646 1.781A8.415 8.415 0 0 0 2.323 6.75 8.115 8.115 0 0 0 1.667 10c0 1.153.218 2.236.656 3.25a8.416 8.416 0 0 0 1.781 2.646 8.415 8.415 0 0 0 2.646 1.781 8.115 8.115 0 0 0 3.25.656 8.115 8.115 0 0 0 3.25-.656 8.416 8.416 0 0 0 2.646-1.781 8.416 8.416 0 0 0 1.781-2.646 8.115 8.115 0 0 0 .656-3.25Z"/>
</svg>
